public/img/social_media_icons/facebook-round.svg

<?xml version="1.0" encoding="UTF-8"?>
<svg width="50px" height="50px" viewBox="0 0 50 50" version="1.1" xmlns="http://www.w3.org/2000/svg" xmlns:xlink="http://www.w3.org/1999/xlink">
    <!-- Generator: Sketch 51.1 (57501) - http://www.bohemiancoding.com/sketch -->
    <title>Combined Shape</title>
    <desc>Created with Sketch.</desc>
    <defs></defs>
    <g id="Page-1" stroke="none" stroke-width="1" fill="none" fill-rule="evenodd">
        <g id="Subscription-Confirmation" transform="translate(-537.000000, -560.000000)" fill="#FFFFFF">
            <g id="Confirmed" transform="translate(204.000000, 258.000000)">
                <g id="Share" transform="translate(333.000000, 301.000000)">
                    <g id="icon-/-social-/-twitter-/-gray-copy" transform="translate(0.000000, 1.000000)">
                        <path d="M25,50 C11.1928813,50 0,38.8071187 0,25 C0,11.1928813 11.1928813,0 25,0 C38.8071187,0 50,11.1928813 50,25 C50,38.8071187 38.8071187,50 25,50 Z M29,21.5007692 L25.9330769,21.5007692 L25.9330769,19.4169231 C25.9330769,18.6346154 26.4384615,18.4546154 26.7846154,18.4546154 L28.9515385,18.4546154 L28.9515385,15.0138462 L25.9746154,15 C22.6653846,15 21.9107692,17.5684615 21.9107692,19.2092308 L21.9107692,21.5007692 L20,21.5007692 L20,25.0453846 L21.9107692,25.0453846 L21.9107692,35.0769231 L25.9330769,35.0769231 L25.9330769,25.0453846 L28.6469231,25.0453846 L29,21.5007692 Z" id="Combined-Shape"></path>
                    </g>
                </g>
            </g>
        </g>
    </g>
</svg>

<svg width="50" height="50" xmlns="http://www.w3.org/2000/svg"><path d="M25 50C11.193 50 0 38.807 0 25S11.193 0 25 0s25 11.193 25 25-11.193 25-25 25zm4-28.5h-3.067v-2.083c0-.782.505-.962.852-.962h2.167v-3.441L25.975 15c-3.31 0-4.064 2.568-4.064 4.21v2.29H20v3.545h1.91v10.032h4.023V25.045h2.714L29 21.501z" fill="#FFF" fill-rule="evenodd"/></svg>
